src/assets/icons/eye.svg

<svg width="14" height="14" viewBox="0 0 14 14" fill="none" xmlns="http://www.w3.org/2000/svg">
<g id="eye">
<g clip-path="url(#clip0_156_4631)">
<g id="Vector">
<path fill-rule="evenodd" clip-rule="evenodd" d="M4.39988 6.99998C4.39988 8.43366 5.56634 9.60013 7.00002 9.60013C8.43371 9.60013 9.60017 8.43366 9.60017 6.99998C9.60017 5.5663 8.43371 4.39983 7.00002 4.39983C5.56634 4.39983 4.39988 5.5663 4.39988 6.99998ZM5.59994 6.99998C5.59994 6.22793 6.22798 5.5999 7.00002 5.5999C7.77207 5.5999 8.4001 6.22793 8.4001 6.99998C8.4001 7.77202 7.77207 8.40006 7.00002 8.40006C6.22798 8.40006 5.59994 7.77202 5.59994 6.99998Z" fill="black"/>
<path fill-rule="evenodd" clip-rule="evenodd" d="M0.0492181 7.23759C0.139623 7.4488 2.33175 12.4003 7.00001 12.4003C11.6683 12.4003 13.8604 7.4488 13.9508 7.23759C14.0164 7.08558 14.0164 6.91357 13.9508 6.76236C13.8604 6.55115 11.6675 1.59967 7.00001 1.59967C2.33255 1.59967 0.140423 6.55115 0.0492181 6.76236C-0.0163857 6.91437 -0.0163857 7.08638 0.0492181 7.23759ZM7.00001 11.2002C3.65502 11.2002 1.73891 7.92243 1.26609 6.99998C1.73891 6.07753 3.65502 2.79974 7.00001 2.79974C10.345 2.79974 12.2611 6.07753 12.7339 6.99998C12.2611 7.92243 10.345 11.2002 7.00001 11.2002Z" fill="black"/>
</g>
</g>
</g>
<defs>
<clipPath id="clip0_156_4631">
<rect width="14" height="14" fill="white"/>
</clipPath>
</defs>
</svg>

<svg xmlns="http://www.w3.org/2000/svg" fill="none" viewBox="0 0 14 14"><g fill="#000" fill-rule="evenodd" clip-path="url(#a)" clip-rule="evenodd"><path d="M4.4 7c0 1.434 1.166 2.6 2.6 2.6S9.6 8.434 9.6 7 8.434 4.4 7 4.4A2.603 2.603 0 0 0 4.4 7m1.2 0c0-.772.628-1.4 1.4-1.4s1.4.628 1.4 1.4S7.772 8.4 7 8.4 5.6 7.772 5.6 7"/><path d="M.05 7.238C.14 7.448 2.331 12.4 7 12.4s6.86-4.951 6.95-5.162a.6.6 0 0 0 0-.476C13.86 6.552 11.669 1.6 7 1.6 2.333 1.6.14 6.55.05 6.762a.6.6 0 0 0 0 .476M7 11.2c-3.345 0-5.261-3.278-5.734-4.2C1.74 6.078 3.655 2.8 7 2.8s5.261 3.278 5.734 4.2c-.473.922-2.389 4.2-5.734 4.2"/></g><defs><clipPath id="a"><path fill="#fff" d="M0 0h14v14H0z"/></clipPath></defs></svg>
